X: 15518
T: Glenside, The
R: polka
M: 2/4
K: Edorian
|:B>c BA|FE D2|B>c BA|B/c/d e2|
B>c BA|FE D>E|FD AF|E2 E2:|
|:Be ef|ed BA|Be ef|ed Bc|
d>e dB|AF D>E|FD AF|E2 E2:|

